X:1
T:Willy's Rare
M:3/4
L:1/8
K:D
 A,2| DB, D2F-E| DB, D3 D| EF A2B-A| F E3 z F| AF E2 D2| EF B,2D-B,|\
 A,B, D3 F| E D3||

